X:1
T:La Battaglia
T:La Battaglia
T:1611
T:Adriano Banchieri (1565-1634)
C:Adriano Banchieri (1565-1634)
%%score { 1 | 2 } { 3 | 4 } { 5 | 6 } { 7 | 8 }
L:1/8
Q:1/4=184
M:4/4
K:F
V:1 treble nm="Pieno"
V:2 bass 
V:3 treble nm="Ottava e flauto" snm="8 e Fl"
V:4 bass 
V:5 treble nm="Ottava, Flauto e Principale" snm="8, Fl e Princ"
V:6 bass 
V:7 treble nm="Vuoto" snm="Vuoto"
V:8 bass 
V:1
"^Allegro, ottava e flauto" F3 G A2 B2 | AGAB A2 c2 | B2 A2 G2 G2 | FEFG A2 F2 | GFGA G2 F2 | %5
 =EDCD[Q:1/4=184] E[Q:1/4=183]"^.9"F[Q:1/4=183]"^.7"G[Q:1/4=183]"^.3"A | %6
[Q:1/4=182]"^.6" G2[Q:1/4=180]"^.2" F2[Q:1/4=176]"^.5" F2[Q:1/4=171]"^.1" E2 |[Q:1/4=164] F8 || %8
[M:3/2][Q:1/4=200]"^Adagio, giungasi Princ." A6 B2 A4 | c6 d2 c4 | A6 B2 A4 | F8 F4 | AGAB A4 d4 | %13
 c6 B2 c4 | AGAB A4 A4 | F8 F4 | A2 G2 A2 B2 AABA | c2 B2 c2 d2 ccdc | A2 G2 A2 B2 AABA | F8 F4 || %20
[M:3/4][Q:1/4=228]"^Presto e pieno"!f! F4 C2 | F4 A2 | c4 c2 | A4 F2 | F4 C2 | F4 A2 | %26
[Q:1/4=228] c4[Q:1/4=216] c2 |[Q:1/4=210] A4[Q:1/4=198] F2 || %28
[M:4/4][Q:1/4=144]"^Adagio e vuoto" E2 G2 G4 | c2 G2 G4 | E2 G2 G4 | c2 G2 G4 | E2 C2 C4 | %33
 C2 G,2 C4 | E2 C2 C4 | C2 G,2 C4 ||[Q:1/4=184]"^Allegro, ottava e flauto" A4 A2 GF | GFGA G2 cB | %38
 A2 GF G2 G2 | F8 | A4 A2 F2 | GFGA[Q:1/4=184] G2[Q:1/4=183]"^.6" c[Q:1/4=182]"^.9"B | %42
[Q:1/4=181]"^.9" A[Q:1/4=180]"^.4"B[Q:1/4=178]"^.4" c4[Q:1/4=164]"^.7" =B2[Q:1/4=172]"^.7" | %43
[Q:1/4=154] c8 ||[Q:1/4=162]"^Adagio" G2"_quasi 3/4" E4 E2 | C4 G2 E2- | E D E2 C4 | %47
 G2"^simile" E4 E2 | C4 G2 E2- | E D E2 C4 | g2 e4 e2 | c4 g2 e2- | e d e2 c4 | g2 e4 e2 | %54
 c4 g2 e2- | e d e2 c4 |[Q:1/4=228]"^Presto" G2 E4 E2 | C4 G2 E2- | E D E2 C4 | G2 E4 E2 | %60
 C4 G2 E2- | E D E2 C4 | g2 e4 e2 | c4 g2 e2- | e d e2 c4 | g2 e4 e2 | c4 g2 e2- | e d e2 c4 | %68
[Q:1/4=276]"^Veloce" G2 E4 E2 | C4 G2 E2- | E D E2 C4 | g2 e4 e2 | c4 g2 e2- | e d e2 c4 | %74
 G2 E4 E2 | C4 G2 E2- | E D E2 C4 | g2 e4 e2 | c4 g2 e2- | e d e2 c4 || %80
[Q:1/4=184]"^Allegro, ottava e flauto" A4 A2 GF | GFGA G2 cB | A2 GF G2 G2 | F8 | A4 A2 F2 | %85
 GFGA[Q:1/4=184] G2[Q:1/4=183]"^.6" c[Q:1/4=182]"^.9"B | %86
[Q:1/4=181]"^.9" A[Q:1/4=180]"^.4"B[Q:1/4=178]"^.4" c4[Q:1/4=164]"^.7" =B2[Q:1/4=172]"^.7" | %87
[Q:1/4=154] c8 ||[Q:1/4=184]"^Allegro e pieno" z4 G,2 G,2 | C2 C2 E2 E2 | G2 G2 c2 c2 | %91
 e2 e2 g2 g2 | e2 e2 c2 c2 | G2 G2 E2 E2 | C2 C2 G,2 G,2 | C2 CD E2 EF | G2 G2 c2 cd | %97
 e2 ef g2 gf | e2 ed c2 c2 | G2 GF E2 ED | C2 C2 G,2 G,2 | C2 C2 E2 E2 | G2 G2 c2 c2 | %103
[Q:1/4=184] A2[Q:1/4=183]"^.7" A2[Q:1/4=182]"^.6" F4-[Q:1/4=180]"^.2" | %104
[Q:1/4=176]"^.5" F2[Q:1/4=171]"^.1" E[Q:1/4=167]"^.8"D[Q:1/4=164] E4 |[Q:1/4=144] F8 || %106
[Q:1/4=184] F3 G A2 B2 | AGAB A2 c2 | B2 A2 G2 G2 | FEFG A2 F2 | %110
[Q:1/4=184][Q:1/4=184]"^Allegro, ottava e flauto" GF[Q:1/4=183]"^.9"G[Q:1/4=183]"^.7"A[Q:1/4=183]"^.3" G2[Q:1/4=182]"^.2" F2 | %111
[Q:1/4=180]"^.5" =E[Q:1/4=179]"^.3"D[Q:1/4=177]"^.9"C[Q:1/4=176]"^.4"D[Q:1/4=174]"^.6" E[Q:1/4=172]"^.6"F[Q:1/4=170]"^.4"G[Q:1/4=167]"^.9"A | %112
[Q:1/4=165]"^.2" G2[Q:1/4=159] F2[Q:1/4=151]"^.8" F2[Q:1/4=143]"^.5" E2 |[Q:1/4=134] !fermata!F8 |] %114
V:2
 F,6 B,,2 | F,4 F,2 F,,2 | G,,2 A,,2 B,,2 C,2 | F,,4 F,,2 F,2 | _E,4 E,2 F,2 | C,4 C,2 C,2 | %6
 B,,2 D,2 B,,2 C,2 | F,,8 ||[M:3/2] F,6 G,2 F,4 | F,,6 B,,2 F,,4 | F,6 D,2 F,4 | F,8 F,,4 | %12
 F,8 B,,4 | F,6 G,2 F,4 | F,8 F,4 | F,8 F,,4 | F,8 F,F,F,F, | F,,8 F,,F,,F,,F,, | F,8 F,F,F,F, | %19
 F,8 F,,4 ||[M:3/4] F,4 F,2 | F,4 F,2 | C,4 C,2 | F,,4 F,,2 | F,4 F,2 | F,4 F,2 | C,4 C,2 | %27
 F,,4 F,,2 ||[M:4/4] C8 | C,8 | C8 | C,8 | C,,8 | C,8 | C,,8 | C,8 ||[K:treble] F4 F2 F2 | %37
 _E4 E2 C2 | D=E F4 E2 | F8 | F4 F2 F2 | _E4 E2 C2 | F2 _E2 D2 D2 | C8 ||[K:bass] C,,8 | C,,8 | %46
 C,,8 | C,,8 | C,,8 | C,,8 | C,8 | C,8 | C,8 | C,8 | C,8 | C,8 | C,,8 | C,,8 | C,,8 | C,,8 | C,,8 | %61
 C,,8 | C,8 | C,8 | C,8 | C,8 | C,8 | C,8 | C,,8 | C,,8 | C,,8 | C,8 | C,8 | C,8 | C,,8 | C,,8 | %76
 C,,8 | C,8 | C,8 | C,8 ||[K:treble] F4 F2 F2 | _E4 E2 C2 | D=E F4 E2 | F8 | F4 F2 F2 | _E4 E2 C2 | %86
 F2 _E2 D2 D2 | C8 ||[K:bass] C,8 | C,8 | C,8 | C,8 | C,8 | C,,8 | C,,8 | C,,8 | C,8 | C,8 | C,8 | %99
 C,,8 | C,,8 | C,,4 C,4 | E,4 A,4 | F,2 F,,2 A,,2 B,,2 | C,8 | F,,8 || F,6 B,,2 | F,4 F,2 F,,2 | %108
 G,,2 A,,2 B,,2 C,2 | F,,4 F,,2 F,2 | _E,4 E,2 F,2 | C,4 C,2 C,2 | B,,2 D,2 B,,2 C,2 | %113
 !fermata!F,,8 |] %114
V:3
 F3 G A2 B2 | A G A B A2 c2 | B2 A2 G2 G2 | F E F G A2 F2 | G F G A G2 F2 | =E D C D E F G A | %6
 G2 F2 F2 E2 | F8 ||[M:3/2] z12 | z12 | z12 | z12 | z12 | z12 | z12 | z12 | z12 | z12 | z12 | %19
 z12 ||[M:3/4] z6 | z6 | z6 | z6 | z6 | z6 | z6 | z6 ||[M:4/4] z8 | z8 | z8 | z8 | z8 | z8 | z8 | %35
 z8 || A4 A2 G F | G F G A G2 c B | A2 G F G2 G2 | F8 | A4 A2 F2 | G F G A G2 c B | A B c4 =B2 | %43
 c8 || G2"_quasi 3/4" E4 E2 | C4 G2 E2- | E D E2 C4 | G2"^simile" E4 E2 | C4 G2 E2- | E D E2 C4 | %50
 g2 e4 e2 | c4 g2 e2- | e d e2 c4 | g2 e4 e2 | c4 g2 e2- | e d e2 c4 | G2 E4 E2 | C4 G2 E2- | %58
 E D E2 C4 | G2 E4 E2 | C4 G2 E2- | E D E2 C4 | g2 e4 e2 | c4 g2 e2- | e d e2 c4 | g2 e4 e2 | %66
 c4 g2 e2- | e d e2 c4 | G2 E4 E2 | C4 G2 E2- | E D E2 C4 | g2 e4 e2 | c4 g2 e2- | e d e2 c4 | %74
 G2 E4 E2 | C4 G2 E2- | E D E2 C4 | g2 e4 e2 | c4 g2 e2- | e d e2 c4 || !fermata!A4 A2 G F | %81
 G F G A G2 c B | A2 G F G2 G2 | F8 | A4 A2 F2 | G F G A G2 c B | A B c4 =B2 | c8 || z8 | z8 | z8 | %91
 z8 | z8 | z8 | z8 | z8 | z8 | z8 | z8 | z8 | z8 | z8 | z8 | z8 | z8 | z8 || z8 | z8 | z8 | z8 | %110
 G F G A G2 F2 | =E D C D E F G A | G2 F2 F2 E2 | !fermata!F8 |] %114
V:4
 F,6 B,,2 | F,4 F,2 F,,2 | G,,2 A,,2 B,,2 C,2 | F,,4 F,,2 F,2 | _E,4 E,2 F,2 | C,4 C,2 C,2 | %6
 B,,2 D,2 B,,2 C,2 | F,,8 ||[M:3/2] z12 | z12 | z12 | z12 | z12 | z12 | z12 | z12 | z12 | z12 | %18
 z12 | z12 ||[M:3/4] z6 | z6 | z6 | z6 | z6 | z6 | z6 | z6 ||[M:4/4] z8 | z8 | z8 | z8 | z8 | z8 | %34
 z8 | z8 || F4 F2 F2 | _E4 E2 C2 | D =E F4 E2 | F8 | F4 F2 F2 | _E4 E2 C2 | F2 _E2 D2 D2 | C8 || %44
 C,,8 | C,,8 | C,,8 | C,,8 | C,,8 | C,,8 | C,8 | C,8 | C,8 | C,8 | C,8 | C,8 | C,,8 | C,,8 | C,,8 | %59
 C,,8 | C,,8 | C,,8 | C,8 | C,8 | C,8 | C,8 | C,8 | C,8 | C,,8 | C,,8 | C,,8 | C,8 | C,8 | C,8 | %74
 C,,8 | C,,8 | C,,8 | C,8 | C,8 | C,8 || F4 F2 F2 | _E4 E2 C2 | D =E F4 E2 | F8 | F4 F2 F2 | %85
 _E4 E2 C2 | F2 _E2 D2 D2 | C8 || z8 | z8 | z8 | z8 | z8 | z8 | z8 | z8 | z8 | z8 | z8 | z8 | z8 | %101
 z8 | z8 | z8 | z8 | z8 || z8 | z8 | z8 | z8 | _E,4 E,2 F,2 | C,4 C,2 C,2 | B,,2 D,2 B,,2 C,2 | %113
 !fermata!F,,8 |] %114
V:5
 z8 | z8 | z8 | z8 | z8 | z8 | z8 | z8 ||[M:3/2] A6 B2 A4 | c6 d2 c4 | A6 B2 A4 | F8 F4 | %12
 A G A B A4 d4 | c6 B2 c4 | A G A B A4 A4 | F8 F4 | A2 G2 A2 B2 A A B A | c2 B2 c2 d2 c c d c | %18
 A2 G2 A2 B2 A A B A | F8 F4 ||[M:3/4] z6 | z6 | z6 | z6 | z6 | z6 | z6 | z6 ||[M:4/4] z8 | z8 | %30
 z8 | z8 | z8 | z8 | z8 | z8 || z8 | z8 | z8 | z8 | z8 | z8 | z8 | z8 || z8 | z8 | z8 | z8 | z8 | %49
 z8 | z8 | z8 | z8 | z8 | z8 | z8 | z8 | z8 | z8 | z8 | z8 | z8 | z8 | z8 | z8 | z8 | z8 | z8 | %68
 z8 | z8 | z8 | z8 | z8 | z8 | z8 | z8 | z8 | z8 | z8 | z8 || z8 | z8 | z8 | z8 | z8 | z8 | z8 | %87
 z8 || z8 | z8 | z8 | z8 | z8 | z8 | z8 | z8 | z8 | z8 | z8 | z8 | z8 | z8 | z8 | z8 | z8 | z8 || %106
 z8 | z8 | z8 | z8 | z8 | z8 | z8 | z8 |] %114
V:6
 z8 | z8 | z8 | z8 | z8 | z8 | z8 | z8 ||[M:3/2] F,6 G,2 F,4 | F,,6 B,,2 F,,4 | F,6 D,2 F,4 | %11
 F,8 F,,4 | F,8 B,,4 | F,6 G,2 F,4 | F,8 F,4 | F,8 F,,4 | F,8 F, F, F, F, | F,,8 F,, F,, F,, F,, | %18
 F,8 F, F, F, F, | F,8 F,,4 ||[M:3/4] z6 | z6 | z6 | z6 | z6 | z6 | z6 | z6 ||[M:4/4] z8 | z8 | %30
 z8 | z8 | z8 | z8 | z8 | z8 || z8 | z8 | z8 | z8 | z8 | z8 | z8 | z8 || z8 | z8 | z8 | z8 | z8 | %49
 z8 | z8 | z8 | z8 | z8 | z8 | z8 | z8 | z8 | z8 | z8 | z8 | z8 | z8 | z8 | z8 | z8 | z8 | z8 | %68
 z8 | z8 | z8 | z8 | z8 | z8 | z8 | z8 | z8 | z8 | z8 | z8 || z8 | z8 | z8 | z8 | z8 | z8 | z8 | %87
 z8 || z8 | z8 | z8 | z8 | z8 | z8 | z8 | z8 | z8 | z8 | z8 | z8 | z8 | z8 | z8 | z8 | z8 | z8 || %106
 z8 | z8 | z8 | z8 | z8 | z8 | z8 | z8 |] %114
V:7
 z8 | z8 | z8 | z8 | z8 | z8 | z8 | z8 ||[M:3/2] z12 | z12 | z12 | z12 | z12 | z12 | z12 | z12 | %16
 z12 | z12 | z12 | z12 ||[M:3/4] z6 | z6 | z6 | z6 | z6 | z6 | z6 | z6 ||[M:4/4] E2 G2 G4 | %29
 c2 G2 G4 | E2 G2 G4 | c2 G2 G4 | E2 C2 C4 | C2 G,2 C4 | E2 C2 C4 | C2 G,2 C4 || z8 | z8 | z8 | %39
 z8 | z8 | z8 | z8 | z8 || z8 | z8 | z8 | z8 | z8 | z8 | z8 | z8 | z8 | z8 | z8 | z8 | z8 | z8 | %58
 z8 | z8 | z8 | z8 | z8 | z8 | z8 | z8 | z8 | z8 | z8 | z8 | z8 | z8 | z8 | z8 | z8 | z8 | z8 | %77
 z8 | z8 | z8 || z8 | z8 | z8 | z8 | z8 | z8 | z8 | z8 || z8 | z8 | z8 | z8 | z8 | z8 | z8 | z8 | %96
 z8 | z8 | z8 | z8 | z8 | z8 | z8 | z8 | z8 | z8 || z8 | z8 | z8 | z8 | z8 | z8 | z8 | z8 |] %114
V:8
 z8 | z8 | z8 | z8 | z8 | z8 | z8 | z8 ||[M:3/2] z12 | z12 | z12 | z12 | z12 | z12 | z12 | z12 | %16
 z12 | z12 | z12 | z12 ||[M:3/4] z6 | z6 | z6 | z6 | z6 | z6 | z6 | z6 ||[M:4/4] C8 | C,8 | C8 | %31
 C,8 | C,,8 | C,8 | C,,8 | C,8 || z8 | z8 | z8 | z8 | z8 | z8 | z8 | z8 || z8 | z8 | z8 | z8 | z8 | %49
 z8 | z8 | z8 | z8 | z8 | z8 | z8 | z8 | z8 | z8 | z8 | z8 | z8 | z8 | z8 | z8 | z8 | z8 | z8 | %68
 z8 | z8 | z8 | z8 | z8 | z8 | z8 | z8 | z8 | z8 | z8 | z8 || z8 | z8 | z8 | z8 | z8 | z8 | z8 | %87
 z8 || z8 | z8 | z8 | z8 | z8 | z8 | z8 | z8 | z8 | z8 | z8 | z8 | z8 | z8 | z8 | z8 | z8 | z8 || %106
 z8 | z8 | z8 | z8 | z8 | z8 | z8 | z8 |] %114

